resources/icons/16px/bullseye.svg

<svg width="16" height="16" viewBox="0 0 16 16" fill="none" xmlns="http://www.w3.org/2000/svg">
<path fill-rule="evenodd" clip-rule="evenodd" d="M15.7592 1.34923C16.1187 1.76855 16.0701 2.39985 15.6508 2.75927L8.65078 8.75927C8.23145 9.1187 7.60015 9.07013 7.24073 8.65081C6.88131 8.23148 6.92987 7.60018 7.3492 7.24076L14.3492 1.24076C14.7685 0.881339 15.3998 0.929901 15.7592 1.34923Z" fill="#5F6B7C"/>
<path d="M8 14C11.3137 14 14 11.3137 14 8C14 7.23702 13.8576 6.5073 13.5979 5.83598L15.1842 4.47631C15.7066 5.53944 16 6.73546 16 8C16 12.4183 12.4183 16 8 16C3.58172 16 0 12.4183 0 8C0 3.58172 3.58172 0 8 0C9.70353 0 11.2827 0.532455 12.5801 1.44002L10.9942 2.79937C10.113 2.29091 9.09049 2 8 2C4.68629 2 2 4.68629 2 8C2 11.3137 4.68629 14 8 14Z" fill="#5F6B7C"/>
<path d="M9.32953 4.22626C8.91356 4.07972 8.46609 4 8 4C5.79086 4 4 5.79086 4 8C4 10.2091 5.79086 12 8 12C10.2091 12 12 10.2091 12 8C12 7.74843 11.9768 7.50228 11.9324 7.26358L9.30857 9.51254C9.24863 9.56444 9.18557 9.61284 9.11972 9.65742C8.75216 9.90641 8.32428 10.0181 7.90349 9.99771C7.65225 9.98577 7.41314 9.92748 7.19454 9.83119C6.92824 9.71428 6.68339 9.53721 6.48146 9.30162C6.47779 9.29733 6.47413 9.29303 6.4705 9.28872C6.44322 9.25638 6.41695 9.22316 6.39173 9.18911C6.11137 8.81074 5.98336 8.36083 6.00165 7.91794C6.01239 7.65187 6.07511 7.3992 6.17992 7.16979C6.30342 6.89948 6.48536 6.66148 6.70958 6.47193L9.32953 4.22626Z" fill="#5F6B7C"/>
</svg>

<svg xmlns="http://www.w3.org/2000/svg" viewBox="0 0 16 16">
  <path d="M15.76 1.35a1 1 0 0 1-.11 1.41l-7 6a1 1 0 1 1-1.3-1.52l7-6a1 1 0 0 1 1.41.11"/>
  <path d="M8 14a6 6 0 0 0 5.598-8.164l1.586-1.36A8 8 0 1 1 12.58 1.44L10.994 2.8A6 6 0 1 0 8 14"/>
  <path d="M9.33 4.226a4 4 0 1 0 2.603 3.037l-2.624 2.25q-.09.077-.19.144a2 2 0 0 1-1.924.174 2 2 0 0 1-.803-.642 1.99 1.99 0 0 1-.212-2.02c.123-.27.305-.508.53-.697z"/>
</svg>
